icons/svgs/store-outline.svg

<svg width="24" height="24" viewBox="0 0 24 24" fill="none" xmlns="http://www.w3.org/2000/svg">
<path d="M21.0545 7.07812L19.0232 3.875H5.93727L3.90602 7.07812C3.71071 7.42969 3.67165 7.89844 3.8279 8.25C3.98415 8.60156 4.25758 8.83594 4.60915 8.875C4.68727 8.875 4.7654 8.91406 4.84352 8.91406C5.31227 8.91406 5.7029 8.67969 5.97633 8.36719C6.36696 7.97656 6.83571 7.78125 7.38258 7.78125C7.92946 7.78125 8.43727 7.97656 8.78883 8.36719C9.06227 8.67969 9.4529 8.91406 9.92165 8.91406C10.3904 8.91406 10.8201 8.67969 11.0935 8.36719C11.4451 7.97656 11.9529 7.78125 12.4607 7.78125C13.0076 7.78125 13.5154 7.97656 13.867 8.36719C14.1404 8.67969 14.5701 8.91406 15.0388 8.91406C15.5076 8.91406 15.8982 8.67969 16.1716 8.36719C16.5232 7.97656 17.031 7.78125 17.5779 7.78125C18.0857 7.78125 18.5935 7.97656 18.9451 8.36719C19.2576 8.67969 19.6482 8.875 20.117 8.875C20.1951 8.875 20.2732 8.875 20.3513 8.875C20.7029 8.83594 20.9763 8.60156 21.1326 8.25C21.2888 7.85938 21.2498 7.42969 21.0545 7.07812ZM20.117 10.75C19.3357 10.75 18.6326 10.5156 18.0857 10.0859C17.8904 9.96875 17.7341 9.8125 17.5779 9.61719C17.4216 9.8125 17.2654 9.96875 17.0701 10.0859C16.4841 10.5156 15.781 10.75 15.0388 10.75C14.2576 10.75 13.5545 10.5156 13.0076 10.0859C12.8123 9.96875 12.617 9.8125 12.4607 9.61719C12.3045 9.8125 12.1482 9.96875 11.9529 10.0859C11.406 10.5156 10.7029 10.75 9.92165 10.75C9.17946 10.75 8.47633 10.5156 7.8904 10.0859C7.69508 9.96875 7.53883 9.8125 7.38258 9.65625C7.22633 9.8125 7.07008 9.96875 6.87477 10.0859C6.28883 10.5156 5.58571 10.75 4.84352 10.75C4.68727 10.75 4.53102 10.75 4.37477 10.75C2.18727 10.4375 1.17165 7.89844 2.34352 6.0625L4.57008 2.54688C4.7654 2.19531 5.11696 2 5.50758 2H19.4529C19.8435 2 20.1951 2.19531 20.3904 2.54688L22.617 6.0625C23.7888 7.89844 22.7732 10.4375 20.5857 10.75C20.4295 10.75 20.2732 10.75 20.117 10.75ZM5.62477 15.125H19.3748V11.9609C19.6091 12 19.8435 12 20.117 12C20.3123 12 20.5466 12 20.742 11.9609C20.9373 11.9609 21.0935 11.9219 21.2498 11.8828V15.125V17V19.5C21.2498 20.9062 20.117 22 18.7498 22H6.24977C4.84352 22 3.74977 20.9062 3.74977 19.5V17V15.125V11.8828C3.86696 11.9219 4.02321 11.9609 4.21852 11.9609C4.41383 12 4.60915 12 4.84352 12C5.11696 12 5.35133 12 5.62477 11.9609V15.125ZM19.3748 17H5.62477V19.5C5.62477 19.8516 5.89821 20.125 6.24977 20.125H18.7498C19.0623 20.125 19.3748 19.8516 19.3748 19.5V17Z" fill="black"/>
</svg>

<svg xmlns="http://www.w3.org/2000/svg" width="24" height="24" fill="currentColor" class="icon-store-outline" viewBox="0 0 24 24">
  <mask id="a" width="23" height="20" x="1" y="2" maskUnits="userSpaceOnUse" style="mask-type:alpha">
    <path d="m21.055 7.078-2.032-3.203H5.937L3.906 7.078c-.195.352-.234.82-.078 1.172s.43.586.781.625c.078 0 .156.04.235.04.468 0 .859-.235 1.132-.548q.587-.585 1.407-.586c.546 0 1.054.196 1.406.586.273.313.664.547 1.133.547s.898-.234 1.172-.547c.351-.39.859-.586 1.367-.586.547 0 1.054.196 1.406.586.273.313.703.547 1.172.547s.86-.234 1.133-.547c.351-.39.859-.586 1.406-.586.508 0 1.015.196 1.367.586.313.313.703.508 1.172.508h.234c.352-.04.625-.273.782-.625a1.37 1.37 0 0 0-.078-1.172m-.938 3.672c-.781 0-1.484-.234-2.031-.664a1.9 1.9 0 0 1-.508-.469 1.9 1.9 0 0 1-.508.469 3.4 3.4 0 0 1-2.031.664c-.781 0-1.484-.234-2.031-.664a2 2 0 0 1-.547-.469 1.9 1.9 0 0 1-.508.469c-.547.43-1.25.664-2.031.664a3.4 3.4 0 0 1-2.032-.664c-.195-.117-.351-.274-.507-.43-.157.156-.313.313-.508.43-.586.43-1.29.664-2.031.664h-.47c-2.187-.312-3.202-2.852-2.03-4.687L4.57 2.547c.195-.352.547-.547.938-.547h13.945c.39 0 .742.195.937.547l2.227 3.516c1.172 1.835.156 4.375-2.031 4.687zM5.625 15.125h13.75v-3.164c.234.039.468.039.742.039.195 0 .43 0 .625-.04.195 0 .351-.038.508-.077V19.5c0 1.406-1.133 2.5-2.5 2.5H6.25a2.47 2.47 0 0 1-2.5-2.5v-7.617c.117.039.273.078.469.078.195.039.39.039.625.039.273 0 .507 0 .78-.04zM19.375 17H5.625v2.5c0 .352.273.625.625.625h12.5a.64.64 0 0 0 .625-.625z"/>
  </mask>
  <g mask="url(#a)">
    <path d="M0 0h24v24H0z"/>
  </g>
</svg>
